src/shared/assets/icons/ic-warning.svg

<svg width="28" height="28" viewBox="0 0 28 28" fill="none" xmlns="http://www.w3.org/2000/svg">
<g clip-path="url(#clip0_127_23237)">
<path d="M2.03601 22.9996C1.65005 23.6663 2.13111 24.5007 2.90144 24.5007H25.0992C25.8695 24.5007 26.3506 23.6663 25.9646 22.9996L14.8658 3.82881C14.4806 3.16353 13.5201 3.16353 13.1349 3.82881L2.03601 22.9996ZM15.167 20.0007C15.167 20.5529 14.7193 21.0007 14.167 21.0007H13.8337C13.2814 21.0007 12.8337 20.5529 12.8337 20.0007V19.6673C12.8337 19.115 13.2814 18.6673 13.8337 18.6673H14.167C14.7193 18.6673 15.167 19.115 15.167 19.6673V20.0007ZM15.167 15.334C15.167 15.8863 14.7193 16.334 14.167 16.334H13.8337C13.2814 16.334 12.8337 15.8863 12.8337 15.334V12.6673C12.8337 12.115 13.2814 11.6673 13.8337 11.6673H14.167C14.7193 11.6673 15.167 12.115 15.167 12.6673V15.334Z" fill="#F9D224"/>
</g>
<defs>
<clipPath id="clip0_127_23237">
<rect width="28" height="28" fill="white"/>
</clipPath>
</defs>
</svg>

<svg xmlns="http://www.w3.org/2000/svg" fill="none" viewBox="0 0 28 28"><g clip-path="url(#ic-warning__a)"><path fill="#f9d224" d="M2.036 23a1 1 0 0 0 .865 1.5H25.1a1 1 0 0 0 .866-1.5l-11.1-19.171a1 1 0 0 0-1.73 0zm13.131-3a1 1 0 0 1-1 1h-.333a1 1 0 0 1-1-1v-.333a1 1 0 0 1 1-1h.333a1 1 0 0 1 1 1zm0-4.666a1 1 0 0 1-1 1h-.333a1 1 0 0 1-1-1v-2.667a1 1 0 0 1 1-1h.333a1 1 0 0 1 1 1z"/></g><defs><clipPath id="ic-warning__a"><path fill="#fff" d="M0 0h28v28H0z"/></clipPath></defs></svg>
